src/assets/cards/7C.svg

<svg clip-rule="evenodd" fill-rule="evenodd" stroke-linejoin="round" stroke-miterlimit="2" viewBox="0 0 934 1300" xmlns="http://www.w3.org/2000/svg"><g fill-rule="nonzero"><path d="m51.814 194.186c8.881-46.2 18.365-80.872 43.253-118.53h-50.566v16.207h-13.435v-30.545h73.973l9.12 14.338c-26.418 28.325-50.616 119.873-46.326 118.53z"/><path d="m879.082 1105.81c-8.881 46.21-18.377 80.88-43.252 118.54h50.566v-16.21h13.435v30.54h-73.974l-9.12-14.33c26.419-28.32 50.616-119.87 46.326-118.54z"/><path d="m647.954 363.415c12-24.063 20.75-48.754 22.291-75.154 1.417-9.717-4.458-9.879-5.375-3.038-16.958 64.971-107.333 47.379-104.208-13.733 2.5-49.563 51.708-60.225 77.417-44.021 10.125 5.971 9.541 2.396 4.041-3.8-38.166-42.546-15.041-97.337 36.5-98.342 55.75 3.305 70.209 61.959 36 96.45-4.25 4.146-13.666 17.467.542 8.155 34.5-24.534 82.417 1.841 81.458 39.666-1.833 69.746-86.833 74.95-105.041 16.692-1.75-6.458-6.75-9.704-5.375 1.267 2.5 19.862 7.75 49.808 22.666 75.858z"/><path d="m647.954 781.115c12-24.063 20.75-48.754 22.291-75.154 1.417-9.717-4.458-9.879-5.375-3.034-16.958 64.967-107.333 47.375-104.208-13.737 2.5-49.563 51.708-60.225 77.417-44.017 10.125 5.967 9.541 2.392 4.041-3.8-38.166-42.55-15.041-97.341 36.5-98.346 55.75 3.309 70.209 61.959 36 96.455-4.25 4.141-13.666 17.462.542 8.15 34.5-24.534 82.417 1.845 81.458 39.67-1.833 69.746-86.833 74.946-105.041 16.688-1.75-6.458-6.75-9.7-5.375 1.271 2.5 19.858 7.75 49.804 22.666 75.854z"/><path d="m224.912 781.115c12-24.063 20.75-48.754 22.292-75.154 1.416-9.717-4.5-9.879-5.375-3.034-17 64.967-107.334 47.375-104.25-13.737 2.541-49.563 51.75-60.225 77.458-44.017 10.125 5.967 9.542 2.392 4-3.8-38.125-42.55-15.042-97.341 36.542-98.346 55.708 3.309 70.208 61.959 36 96.455-4.25 4.141-13.667 17.462.5 8.15 34.541-24.534 82.458 1.845 81.5 39.67-1.834 69.746-86.875 74.946-105.042 16.688-1.75-6.458-6.792-9.7-5.375 1.271 2.5 19.858 7.708 49.804 22.625 75.854z"/><path d="m435.037 572.265c12-24.063 20.75-48.754 22.292-75.154 1.416-9.717-4.459-9.879-5.375-3.038-16.959 64.971-107.334 47.379-104.209-13.733 2.5-49.563 51.75-60.225 77.417-44.021 10.125 5.971 9.583 2.396 4.042-3.796-38.167-42.55-15.042-97.341 36.5-98.346 55.75 3.309 70.208 61.959 36 96.45-4.25 4.146-13.667 17.467.541 8.155 34.5-24.534 82.417 1.845 81.459 39.666-1.792 69.746-86.834 74.95-105 16.692-1.75-6.458-6.792-9.7-5.417 1.271 2.542 19.858 7.75 49.804 22.667 75.854z"/><path d="m224.912 363.415c12-24.063 20.75-48.754 22.292-75.154 1.416-9.717-4.5-9.879-5.375-3.038-17 64.971-107.334 47.379-104.25-13.733 2.541-49.563 51.75-60.225 77.458-44.021 10.125 5.971 9.542 2.396 4-3.8-38.125-42.546-15.042-97.337 36.542-98.342 55.708 3.305 70.208 61.959 36 96.45-4.25 4.146-13.667 17.467.5 8.155 34.541-24.534 82.458 1.841 81.5 39.666-1.834 69.746-86.875 74.95-105.042 16.692-1.75-6.458-6.792-9.704-5.375 1.267 2.5 19.862 7.708 49.808 22.625 75.858z"/><path d="m709.245 953.857c-12 24.062-20.75 48.753-22.291 75.153-1.459 9.72 4.458 9.88 5.375 3.04 16.958-64.973 107.333-47.381 104.208 13.73-2.5 49.56-51.75 60.23-77.417 44.02-10.125-5.97-9.583-2.39-4.041 3.8 38.166 42.55 15.041 97.34-36.5 98.34-55.75-3.3-70.209-61.95-36-96.45 4.25-4.14 13.666-17.46-.542-8.15-34.5 24.53-82.417-1.84-81.458-39.67 1.791-69.743 86.833-74.947 105-16.69 1.75 6.46 6.791 9.71 5.416-1.27-2.541-19.86-7.75-49.803-22.666-75.853z"/><path d="m286.162 953.857c-12 24.062-20.708 48.753-22.292 75.153-1.416 9.72 4.5 9.88 5.375 3.04 17-64.973 107.375-47.381 104.25 13.73-2.541 49.56-51.75 60.23-77.416 44.02-10.167-5.97-9.584-2.39-4.042 3.8 38.125 42.55 15.042 97.34-36.5 98.34-55.75-3.3-70.208-61.95-36.042-96.45 4.25-4.14 13.709-17.46-.5-8.15-34.541 24.53-82.458-1.84-81.458-39.67 1.792-69.743 86.833-74.947 105-16.69 1.75 6.46 6.792 9.71 5.417-1.27-2.542-19.86-7.75-49.803-22.667-75.853z"/><path d="m56.454 318.677c4.97-10.187 9.804-19.67 12.437-30.837 1.746-10.533-1.829-6.621-3.854.283-3.008 9.575-11.346 13.934-19.083 14.038-14.05.191-21.055-10.85-20.617-22.725-1.533-12.492 11.129-21.334 20.671-20.654 7.179.512 13.433 4.387 17.221 7.4 2.487 1.312 5.141 1.891 1.437-1.496-6.987-7.638-12.817-12.35-12.692-23.796.121-10.742 9.309-21.95 21.484-21.596 15.212.438 22.133 12.042 22.096 22.833-.042 7.867-3.975 15.109-10.05 19.596-3.934 3.192-2.83 5.584 1.658 2.563 4.312-3.717 9.446-5.346 14.771-5.459 14.562-.229 20.229 12.338 19.396 24.017-.792 10.938-10.084 22.2-22.371 20.925-10.963-1.254-16.721-10.458-20.021-19.904-1.092-2.896-2.817-3.679-2.771.637 2.533 21.075 10.383 34.188 10.442 34.175z"/><path d="m876.912 993.69c-5 10.19-9.833 19.67-12.458 30.84-1.75 10.53 1.833 6.62 3.875-.29 3-9.57 11.333-13.93 19.083-14.03 14.042-.2 21.042 10.85 20.583 22.72 1.542 12.49-11.125 21.34-20.666 20.66-7.167-.52-13.417-4.39-17.209-7.4-2.5-1.32-5.125-1.9-1.458 1.49 7 7.64 12.833 12.35 12.708 23.8-.125 10.74-9.291 21.95-21.458 21.6-15.25-.44-22.167-12.05-22.125-22.84.042-7.87 3.958-15.11 10.042-19.6 3.958-3.19 2.833-5.57-1.625-2.56-4.334 3.72-9.459 5.35-14.792 5.46-14.542.23-20.208-12.34-19.375-24.02.75-10.93 10.083-22.2 22.333-20.92 11 1.25 16.75 10.46 20.042 19.9 1.083 2.9 2.792 3.68 2.75-.63-2.5-21.08-10.375-34.193-10.417-34.18z"/></g></svg>

<?xml version="1.0" encoding="UTF-8" standalone="no"?>
<!DOCTYPE svg PUBLIC "-//W3C//DTD SVG 1.1//EN" "http://www.w3.org/Graphics/SVG/1.1/DTD/svg11.dtd">
<svg width="100%" height="100%" viewBox="0 0 934 1300" version="1.1" xmlns="http://www.w3.org/2000/svg" xmlns:xlink="http://www.w3.org/1999/xlink" xml:space="preserve" xmlns:serif="http://www.serif.com/" style="fill-rule:evenodd;clip-rule:evenodd;stroke-linejoin:round;stroke-miterlimit:2;">
    <g id="_7C" serif:id="7C">
        <g id="path7110-2">
            <path d="M51.814,194.186C60.695,147.986 70.179,113.314 95.067,75.656L44.501,75.656L44.501,91.863L31.066,91.863L31.066,61.318L105.039,61.318L114.159,75.656C87.741,103.981 63.543,195.529 67.833,194.186L51.814,194.186Z" style="fill-rule:nonzero;"/>
        </g>
        <g id="path7126-7">
            <path d="M879.082,1105.81C870.201,1152.02 860.705,1186.69 835.83,1224.35L886.396,1224.35L886.396,1208.14L899.831,1208.14L899.831,1238.68L825.857,1238.68L816.737,1224.35C843.156,1196.03 867.353,1104.48 863.063,1105.81L879.082,1105.81Z" style="fill-rule:nonzero;"/>
        </g>
        <g id="path3319">
            <path d="M647.954,363.415C659.954,339.352 668.704,314.661 670.245,288.261C671.662,278.544 665.787,278.382 664.87,285.223C647.912,350.194 557.537,332.602 560.662,271.49C563.162,221.927 612.37,211.265 638.079,227.469C648.204,233.44 647.62,229.865 642.12,223.669C603.954,181.123 627.079,126.332 678.62,125.327C734.37,128.632 748.829,187.286 714.62,221.777C710.37,225.923 700.954,239.244 715.162,229.932C749.662,205.398 797.579,231.773 796.62,269.598C794.787,339.344 709.787,344.548 691.579,286.29C689.829,279.832 684.829,276.586 686.204,287.557C688.704,307.419 693.954,337.365 708.87,363.415L647.954,363.415Z" style="fill-rule:nonzero;"/>
        </g>
        <g id="path3321">
            <path d="M647.954,781.115C659.954,757.052 668.704,732.361 670.245,705.961C671.662,696.244 665.787,696.082 664.87,702.927C647.912,767.894 557.537,750.302 560.662,689.19C563.162,639.627 612.37,628.965 638.079,645.173C648.204,651.14 647.62,647.565 642.12,641.373C603.954,598.823 627.079,544.032 678.62,543.027C734.37,546.336 748.829,604.986 714.62,639.482C710.37,643.623 700.954,656.944 715.162,647.632C749.662,623.098 797.579,649.477 796.62,687.302C794.787,757.048 709.787,762.248 691.579,703.99C689.829,697.532 684.829,694.29 686.204,705.261C688.704,725.119 693.954,755.065 708.87,781.115L647.954,781.115Z" style="fill-rule:nonzero;"/>
        </g>
        <g id="path3323">
            <path d="M224.912,781.115C236.912,757.052 245.662,732.361 247.204,705.961C248.62,696.244 242.704,696.082 241.829,702.927C224.829,767.894 134.495,750.302 137.579,689.19C140.12,639.627 189.329,628.965 215.037,645.173C225.162,651.14 224.579,647.565 219.037,641.373C180.912,598.823 203.995,544.032 255.579,543.027C311.287,546.336 325.787,604.986 291.579,639.482C287.329,643.623 277.912,656.944 292.079,647.632C326.62,623.098 374.537,649.477 373.579,687.302C371.745,757.048 286.704,762.248 268.537,703.99C266.787,697.532 261.745,694.29 263.162,705.261C265.662,725.119 270.87,755.065 285.787,781.115L224.912,781.115Z" style="fill-rule:nonzero;"/>
        </g>
        <g id="path3325">
            <path d="M435.037,572.265C447.037,548.202 455.787,523.511 457.329,497.111C458.745,487.394 452.87,487.232 451.954,494.073C434.995,559.044 344.62,541.452 347.745,480.34C350.245,430.777 399.495,420.115 425.162,436.319C435.287,442.29 434.745,438.715 429.204,432.523C391.037,389.973 414.162,335.182 465.704,334.177C521.454,337.486 535.912,396.136 501.704,430.627C497.454,434.773 488.037,448.094 502.245,438.782C536.745,414.248 584.662,440.627 583.704,478.448C581.912,548.194 496.87,553.398 478.704,495.14C476.954,488.682 471.912,485.44 473.287,496.411C475.829,516.269 481.037,546.215 495.954,572.265L435.037,572.265Z" style="fill-rule:nonzero;"/>
        </g>
        <g id="path3327">
            <path d="M224.912,363.415C236.912,339.352 245.662,314.661 247.204,288.261C248.62,278.544 242.704,278.382 241.829,285.223C224.829,350.194 134.495,332.602 137.579,271.49C140.12,221.927 189.329,211.265 215.037,227.469C225.162,233.44 224.579,229.865 219.037,223.669C180.912,181.123 203.995,126.332 255.579,125.327C311.287,128.632 325.787,187.286 291.579,221.777C287.329,225.923 277.912,239.244 292.079,229.932C326.62,205.398 374.537,231.773 373.579,269.598C371.745,339.344 286.704,344.548 268.537,286.29C266.787,279.832 261.745,276.586 263.162,287.557C265.662,307.419 270.87,337.365 285.787,363.415L224.912,363.415Z" style="fill-rule:nonzero;"/>
        </g>
        <g id="path3381">
            <path d="M709.245,953.857C697.245,977.919 688.495,1002.61 686.954,1029.01C685.495,1038.73 691.412,1038.89 692.329,1032.05C709.287,967.077 799.662,984.669 796.537,1045.78C794.037,1095.34 744.787,1106.01 719.12,1089.8C708.995,1083.83 709.537,1087.41 715.079,1093.6C753.245,1136.15 730.12,1190.94 678.579,1191.94C622.829,1188.64 608.37,1129.99 642.579,1095.49C646.829,1091.35 656.245,1078.03 642.037,1087.34C607.537,1111.87 559.62,1085.5 560.579,1047.67C562.37,977.927 647.412,972.723 665.579,1030.98C667.329,1037.44 672.37,1040.69 670.995,1029.71C668.454,1009.85 663.245,979.907 648.329,953.857L709.245,953.857Z" style="fill-rule:nonzero;"/>
        </g>
        <g id="path3383">
            <path d="M286.162,953.857C274.162,977.919 265.454,1002.61 263.87,1029.01C262.454,1038.73 268.37,1038.89 269.245,1032.05C286.245,967.077 376.62,984.669 373.495,1045.78C370.954,1095.34 321.745,1106.01 296.079,1089.8C285.912,1083.83 286.495,1087.41 292.037,1093.6C330.162,1136.15 307.079,1190.94 255.537,1191.94C199.787,1188.64 185.329,1129.99 219.495,1095.49C223.745,1091.35 233.204,1078.03 218.995,1087.34C184.454,1111.87 136.537,1085.5 137.537,1047.67C139.329,977.927 224.37,972.723 242.537,1030.98C244.287,1037.44 249.329,1040.69 247.954,1029.71C245.412,1009.85 240.204,979.907 225.287,953.857L286.162,953.857Z" style="fill-rule:nonzero;"/>
        </g>
        <g id="path3470">
            <path d="M56.454,318.677C61.424,308.49 66.258,299.007 68.891,287.84C70.637,277.307 67.062,281.219 65.037,288.123C62.029,297.698 53.691,302.057 45.954,302.161C31.904,302.352 24.899,291.311 25.337,279.436C23.804,266.944 36.466,258.102 46.008,258.782C53.187,259.294 59.441,263.169 63.229,266.182C65.716,267.494 68.37,268.073 64.666,264.686C57.679,257.048 51.849,252.336 51.974,240.89C52.095,230.148 61.283,218.94 73.458,219.294C88.67,219.732 95.591,231.336 95.554,242.127C95.512,249.994 91.579,257.236 85.504,261.723C81.57,264.915 82.674,267.307 87.162,264.286C91.474,260.569 96.608,258.94 101.933,258.827C116.495,258.598 122.162,271.165 121.329,282.844C120.537,293.782 111.245,305.044 98.958,303.769C87.995,302.515 82.237,293.311 78.937,283.865C77.845,280.969 76.12,280.186 76.166,284.502C78.699,305.577 86.549,318.69 86.608,318.677L56.454,318.677Z" style="fill-rule:nonzero;"/>
        </g>
        <g id="path3494">
            <path d="M876.912,993.69C871.912,1003.88 867.079,1013.36 864.454,1024.53C862.704,1035.06 866.287,1031.15 868.329,1024.24C871.329,1014.67 879.662,1010.31 887.412,1010.21C901.454,1010.01 908.454,1021.06 907.995,1032.93C909.537,1045.42 896.87,1054.27 887.329,1053.59C880.162,1053.07 873.912,1049.2 870.12,1046.19C867.62,1044.87 864.995,1044.29 868.662,1047.68C875.662,1055.32 881.495,1060.03 881.37,1071.48C881.245,1082.22 872.079,1093.43 859.912,1093.08C844.662,1092.64 837.745,1081.03 837.787,1070.24C837.829,1062.37 841.745,1055.13 847.829,1050.64C851.787,1047.45 850.662,1045.07 846.204,1048.08C841.87,1051.8 836.745,1053.43 831.412,1053.54C816.87,1053.77 811.204,1041.2 812.037,1029.52C812.787,1018.59 822.12,1007.32 834.37,1008.6C845.37,1009.85 851.12,1019.06 854.412,1028.5C855.495,1031.4 857.204,1032.18 857.162,1027.87C854.662,1006.79 846.787,993.677 846.745,993.69L876.912,993.69Z" style="fill-rule:nonzero;"/>
        </g>
    </g>
</svg>
